X:1
T: Golden Tresses
C:
R:Reel
Q: 232
K:Bb
M:4/4
L:1/8
|:F2|B,F DB Fd Bf|df bf df Bd|eg ce Ac Fc|((3c=Bc) ((3edc) ((3_BAG) ((3FEC)|
B,F DB Fd Bf|df bf df Bd|eg ce Ac FA|B2 d2 B2:|
|:f2|b2 B,D FB db|g2 CE Gc eg|f2 A,C FA cf|df Bd FB DF|
b2 B,D FB db|g2 CE Gc eg|((3c=Bc) ((3edc) ((3_BAG) ((3FGA)|B2 d2 B2:|
